X:1     
T:Night Visit Song
B: Purslow, F, (1968), The Wanton Seed, EDFS, London
S:William Stockley, Locksheath, Titchfield, Hants. Spe 1907
Z:Gardiner H.1014
F:http://www.folkinfo.org/songs
M:3/4     %Meter
L:1/8     %
K:G
D G A |B3 d cB |(AG) D3 
w:The time is come, I must be go-*ing, 
D |GA (BA) G(A/B/) | cB A3
w:The burn-ing temp-*est I_ have to cross
 B |cB/A/ G2 AG |(F/E/)D E2 D 
w: All over the_ mount-ains I've rode_ with pleas-ure 
D |E/E3/2 (F3/2E/) D3/2D/ | GG G2-G |]
w:This ve-ry night_ I'll be with my lass*